X:19078
T:Xiraldilla (CT 418)
R:Xiraldilla
C:Tradicional
S:Música Tradicional Asturiana, (C) Tello & Tito. Asturies, 2001.
S:http://pagina.de/MusTradAst <telloytito@asturies.org>
N:Xiraldilla, dictada por María Fernández Argüelles, de diez y nueve años, de Cabañaquinta, ayuntamiento de Ayer.
O:Cabañaquinta (Ayer)
A:Asturies
Z:Cancioneru de Torner 418
M:3/8
L:1/8
Q:3/8=88
W:Tienes ojos de cristal
W:hechos en la platería;
W:en mi vida he visto yo
W:ojos de tanta alegría.
W:
W:Ni como, ni vivo,
W:ni puedo dormir,
W:al ver que tus ojos
W:no son para mí.
K:Cm
|c2 d|e2 c|d2 e|(d>c=B)|
c2 d|_B2 G|F2 G|G2 G|
c2 d|e2 c|d2 e|(d>c=B)|
c2 d|_B2 G|F2 G|GGG|
ccd|BBA|GFA|G2 G|
ccd|BBA|GFA|G2 ||


